!!!!SEGMENT: pl-cz--ii-8--001_stefani-jozef--requiem-racz-wiekuisty-pokoj.krn
!!!cenid: 18xx:1059
!!!COM: Stefani, Józef
!!!COM-rismID: pe30024097
!!!CDT: 1800/04/16-1876/03/19
!!!CNT: Polish
!!!OPR: Requiem
!!!OTL: Racz wiekuisty pokój
!!!OMV: 001
!!!PDT:
!!!AGN: Sacred; Requiem
!!!SMS-siglum: PL-CZ
!!!SMS-shelfmark: II-8
!!!SMS-shelfwork: 001-001 M
!!!SMS-variant:
!!!SMS-altvar:
!!!NIFC-rismSourceID: 300001272
!!!NIFC-islandoraID: pl-cz:33776
!!!URL-pdf-islandora: https://repozytorium.nifc.pl/islandora/object/pl-cz%3A33776/datastream/PDF/view
!!!URL-scan:
!!!ONB-nifc: UWAGA: części Requiem: Racz wiekuisty pokój, Dzień ów dzień – Trąba dziwnym głosem ryknie,
!!!AIN: 1 bass 1 organ 2 soprn 1 tenor
!!!key: c
**kern	**kern	**kern	**text	**kern	**text	**kern	**text	**kern	**text
*part5	*part5	*part4	*part4	*part3	*part3	*part2	*part2	*part1	*part1
*staff6	*staff5	*staff4	*staff4	*staff3	*staff3	*staff2	*staff2	*staff1	*staff1
*	*	*group1	*	*group1	*	*group1	*	*group1	*
*I"Organo.	*	*I"Baſso	*	*I"Tenore.	*	*I"Sorpano 2do	*	*I"Sorpano 1mo	*
*I'org	*	*I'B	*	*I'T	*	*I'S 2	*	*I'S 1	*
*Iorgan	*	*Ibass	*	*Itenor	*	*Isoprn	*	*Isoprn	*
*ICklav	*	*ICvox	*	*ICvox	*	*ICvox	*	*ICvox	*
*>[A,B,A]	*>[A,B,A]	*>[A,B,A]	*>[A,B,A]	*>[A,B,A]	*>[A,B,A]	*>[A,B,A]	*>[A,B,A]	*>[A,B,A]	*>[A,B,A]
*>A	*>A	*>A	*>A	*>A	*>A	*>A	*>A	*>A	*>A
*clefF4	*clefG2	*clefF4	*	*clefC4	*	*clefC1	*	*clefC1	*
*k[b-e-a-]	*k[b-e-a-]	*k[b-e-a-]	*	*k[b-a-e-]	*	*k[b-e-a-]	*	*k[e-a-b-]	*
*c:	*c:	*c:	*	*c:	*	*c:	*	*c:	*
*M2/2	*M2/2	*M2/2	*	*M2/2	*	*M2/2	*	*M2/2	*
*met(c|)	*met(c|)	*met(c|)	*	*met(c|)	*	*met(c|)	*	*met(c|)	*
=1	=1	=1	=1	=1	=1	=1	=1	=1	=1
*	*	*	*	*	*	*	*	*2\right	*
!	!	!	!	!	!	!LO:TX:a:B:t=Largo.	!	!	!
!LO:TX:t=P:problem=znaki BB- E- A-	!LO:TX:a:B:t=Largo.	!LO:TX:a:B:t=Largo.	!	!LO:TX:a:B:t=Largo.	!	!LO:TX:t=P:problem=kolejność znaków b- ee- a-	!	!LO:TX:a:B:t=Largo.	!
2C/	2g 2e-/	2C/	Racz	2G/	Racz	2e-/	Racz	2g\	Racz
2C/	2cc 2g 2en/	2C/	wie-	2G/	wie-	2en/	wie-	2cc\	wie-
=2	=2	=2	=2	=2	=2	=2	=2	=2	=2
.	8qqb-/	.	.	.	.	.	.	8qqb-/	.
*	*	*	*	*2\right	*	*	*	*	*
2C/	2a- 2f/	2C/	-ku-	2c\	-ku-	2f/	-ku-	2a-\	-ku-
2C/	2g 2e-/	2C/	-i-	2c\	-i-	2e-X/	-i-	2g\	-i-
=3	=3	=3	=3	=3	=3	=3	=3	=3	=3
*	*^	*	*	*	*	*	*	*	*
*	*	*^	*	*	*	*	*	*	*	*
*2\right	*2\right	*	*	*2\right	*	*	*	*	*	*	*
2GG/	2f/	1d	2c\	2G\	-stẏ	2c\	-sty	2d/	-stẏ	2f/	-sty
2G\	4g/	.	2Bn\	2G\	Po-	2Bn\	Po-	2d/	Po-	(>4g/	po-
.	4f/	.	.	.	.	.	.	.	.	4f/)	.
*	*v	*v	*v	*	*	*	*	*	*	*	*
!	!	!LO:LB:g=original	!	!LO:LB:g=original	!	!LO:LB:g=original	!	!LO:LB:g=original	!
=4	=4	=4	=4	=4	=4	=4	=4	=4	=4
2A-\	2e- 2c/	2A-\	-kóẏ	2c\	-koẏ	2c/	-kóẏ	2e-/	-kóẏ
2E-\	2g 2c/	2E-\	dać	2G/	dać	2c/	dać	2g/	dac
=5	=5	=5	=5	=5	=5	=5	=5	=5	=5
2F\	2a- 2f 2d/	2F\	Im	2A-\	jm	2d/	jm	2f/	Im
2F#X\	2an 2e- 2c/	2F#X\	Pa-	2An\	Pa-	2c/	Pa-	2e-/	Pa-
=6	=6	=6	=6	=6	=6	=6	=6	=6	=6
1G;	1g 1d 1Bn;	1G;	-nie	1Bn;	-nie	1Bn;	-nie	1d;	-nie
=7	=7	=7	=7	=7	=7	=7	=7	=7	=7
2C/	2en 2c 2G/	2C/	Nie-	2G/	Nie-	2c/	Nie-	2en/	Nie-
2BB-/	4e 4c 4G/	4BB-/	-chaẏ	4G/	-chaẏ	4c/	-chaẏ	4e/	-chaẏ
.	4e 4c 4G/	4BB-/	im	4G/	im	4c/	im	4e/	im
!	!	!LO:LB:g=original	!	!	!	!	!	!LO:LB:g=original	!
=8	=8	=8	=8	=8	=8	=8	=8	=8	=8
2AA-/	2f 2c/	2AA-/	Swiat-	2A-\	swia-	2c/	Swia-	2f/	Swia-
2FF/	2a- 2c/	2FF/	-łość	2A-\	-tłość	2c/	-tłość	2a-/	-tłość
!	!	!	!	!LO:LB:g=original	!	!LO:LB:g=original	!	!	!
=9	=9	=9	=9	=9	=9	=9	=9	=9	=9
*	*^	*^	*	*	*	*	*	*	*
*	*	*^	*	*	*	*	*	*	*	*	*
2EE-/	2g 2c/	2rcyy	2ryy	2E-\	2.EE-\	Swie-	2G/	swie-	2c/	swie-	2g\	swie-
4AA-/	2cc/	4f\	2d\	(4A-\	.	-ćić	(>4F/	-cić	2d/	-ćić	2cc\	-cić
4FF/	.	4a-\	.	4F\)	4ryy	.	4A-/)	.	.	.	.	.
*	*	*v	*v	*	*	*	*	*	*	*	*	*
*	*	*	*v	*v	*	*	*	*	*	*	*
=10	=10	=10	=10	=10	=10	=10	=10	=10	=10	=10
1GG	2.bn/	1f 1d	2.G\	nie	2.G/	nie	2.f/	nie	2.bn\	nie
.	4b/	.	4GG/	prze-	4G/	prze-	4f/	prze-	4b\	prze-
*	*v	*v	*	*	*	*	*	*	*	*
=11	=11	=11	=11	=11	=11	=11	=11	=11	=11
4C/	[1cc 1e-	1C	-sta-	[>1G	-sta-	1e-	-sta-	1cc	-sta-
4E-/	.	.	.	.	.	.	.	.	.
4G/	.	.	.	.	.	.	.	.	.
4E-/	.	.	.	.	.	.	.	.	.
!	!	!LO:LB:g=original	!	!	!	!	!	!LO:LB:g=original	!
=12	=12	=12	=12	=12	=12	=12	=12	=12	=12
2C/	2cc] 2e-/	2C/	-nie	2G/]	-nie	2e-/	-nie	2cc\	-nie
!	!	!LO:TX:b:t=Fine	!	!LO:TX:a:t=Fine	!	!LO:TX:a:t=Fine	!	!	!
2r	2r	2r	.	2r	.	2r	.	2r	.
!LO:LB:g=original	!LO:LB:g=original	!	!	!LO:LB:g=original	!	!LO:LB:g=original	!	!	!
=13||;	=13||;	=13||;	=13||	=13||;	=13||	=13||;	=13||	=13||;;	=13||
*>B	*>B	*>B	*>B	*>B	*>B	*>B	*>B	*>B	*>B
2E-\	2b- 2g/	2E-\	Bo-	2B-\	Bo-	2g/	Bo-	2b-\	Bo-
4BB-/	4b- 4g/	(>4BB-/	-że	4B-\	-że	4g/	-że	4b-\	-że
4BBn/	4a- 4f/	4BBn/)	Sẏ-	4d\	Sẏ-	4f/	Sy-	4a-\	Sẏ-
=14	=14	=14	=14	=14	=14	=14	=14	=14	=14
2C/	2g 2e-/	2C/	-O-	2e-\	-O-	2e-/	-O-	2g\	-o-
2C/	2g 2e-/	2C/	-nu	2e-\	-nu	2e-/	-nu	2g\	-nu
=15	=15	=15	=15	=15	=15	=15	=15	=15	=15
2AA-/	2cc 2a- 2e-/	2AA-/	Twe	2e-\	twe	(4a-\	twe	(4cc\	twe
.	.	.	.	.	.	4cc\)	.	4ee-\)	.
!	!	!	!	!	!	!	!	!LO:LB:g=original	!
2A-\	2cc 2a- 2e-/	2A-\	I-	2e-\	I-	(4b-\	I-	4dd\	I-
.	.	.	.	.	.	4a-\)	.	4cc\	.
!	!	!LO:LB:g=original	!	!	!	!	!	!	!
=16	=16	=16	=16	=16	=16	=16	=16	=16	=16
*	*^	*	*	*	*	*	*	*	*
*	*	*	*	*	*	*	*2\right	*	*	*
2E-\	2b-/	2g\	2E-\	-mie	2e-\	-mie	2g\	-mie	2b-\	-mie
4G\	2r	2ryy	2r	.	2r	.	2r	.	2r	.
4B-\	.	.	.	.	.	.	.	.	.	.
*	*v	*v	*	*	*	*	*	*	*	*
!	!	!	!	!	!	!LO:LB:g=original	!	!	!
=17	=17	=17	=17	=17	=17	=17	=17	=17	=17
2e-\	2b- 2g/	2e-\	Na-	2B-\	Na-	2g\	Na-	2b-\	na-
!	!	!	!	!LO:LB:g=original	!	!	!	!	!
2d\	4b- 4f/	4d\	-le-	4B-\	-le-	4f/	-le-	4b-\	-le-
.	4b- 4f/	4d\	-ży	4B-\	-zẏ	4f/	-żẏ	4b-\	-ży
=18	=18	=18	=18	=18	=18	=18	=18	=18	=18
*	*^	*	*	*	*	*	*	*	*
2c\	2an 2f 2e-/	2reyy	2c\	ucz-	2e-\	ucz-	2f/	ucz-	2an\	ucz-
4B-\	2b- 2f/	4d\	2B-\	-ćić	2d\	-ćić	2f/	-ćić	2b-\	-cić
4d\	.	4rg	.	.	.	.	.	.	.	.
*	*v	*v	*	*	*	*	*	*	*	*
!	!	!	!	!	!	!	!	!LO:LB:g=original	!
=19	=19	=19	=19	=19	=19	=19	=19	=19	=19
2.F\	2.cc 2.an 2.f/	2.F\	przez	2.An\	przez	2.f/	przez	2.cc\	przez
4F\	4cc 4a 4f/	4F\	pie-	4A\	pie-	4e-/	pie-	4cc\	pie-
!	!	!LO:LB:g=original	!	!	!	!	!	!	!
=20	=20	=20	=20	=20	=20	=20	=20	=20	=20
4B-\	2b- 2d/	2B-\	-nia	2B-\	-nia	2d/	-nia	2b-\	-nia
4A-\	.	.	.	.	.	.	.	.	.
4G\	2r	2r	.	2r	.	2r	.	2r	.
4F\	.	.	.	.	.	.	.	.	.
!	!	!	!	!	!	!LO:LB:g=original	!	!	!
=21	=21	=21	=21	=21	=21	=21	=21	=21	=21
2E-\	2b- 2g/	2E-\	To-	2B-\	To-	2g/	To-	2b-\	To-
4BB-/	4b- 4g/	4BB-/	-bie	4B-\	-bie	4g/	-bie	4b-\	-bie
4BBn/	4dd 4a- 4f/	4BBn/	się	4A-\	się	4f/	się	4dd\	się
!	!	!	!	!LO:LB:g=original	!	!	!	!	!
=22	=22	=22	=22	=22	=22	=22	=22	=22	=22
*	*^	*	*	*	*	*	*	*	*
2C/	2ee- 2g/	2e-\	2C/	w_Je-	2G/	w_Je-	2e-/	w_Je-	2ee-\	w_Je-
2GG/	2dd-X 2b- 2e-/	2reyy	2GG/	-ro-	2B-/	-ro-	2e-/	-ro-	2dd-X\	-ro-
*	*v	*v	*	*	*	*	*	*	*	*
!	!	!	!	!	!	!	!	!LO:LB:g=original	!
=23	=23	=23	=23	=23	=23	=23	=23	=23	=23
4AA-/	2.cc 2.a- 2.e-/	(>4AA-/	-zo-	2.A-\	-zo-	2.e-/	-zo-	2.cc\	-zo-
4BB-/	.	4BB-/)	.	.	.	.	.	.	.
4C/	.	(>4C/	-li-	.	.	.	.	.	.
4D/	4cc 4a- 4e-/	4D/)	.	4A-\	-li-	4e-/	-li-	4cc\	-li-
!LO:LB:g=original	!LO:LB:g=original	!LO:LB:g=original	!	!	!	!	!	!	!
=24	=24	=24	=24	=24	=24	=24	=24	=24	=24
2E-\	2b- 2g 2e-/	2E-\	mie	2G/	-mie	2e-/	-mie	2b-\	-mie
4G\	2r	2r	.	2r	.	2r	.	2r	.
4B-\	.	.	.	.	.	.	.	.	.
!	!	!	!	!	!	!LO:LB:g=original	!	!	!
=25	=25	=25	=25	=25	=25	=25	=25	=25	=25
2e-\	2b- 2g/	2E-\	od-	2e-\	od-	2g\	od-	2b-\	od-
2d\	4b- 4f/	4D\	-da-	4d\	-da-	4f/	-da-	4b-\	-da-
.	4b- 4f/	4D\	-dzą	4d\	-dzą	4f/	-dzą	4b-\	-dzą
!	!	!	!	!LO:LB:g=original	!	!	!	!	!
=26	=26	=26	=26	=26	=26	=26	=26	=26	=26
*	*^	*	*	*	*	*	*	*	*
2c 2F\	2an 2e-/	2reyy	2F\	Ca-	2c\	ca-	2e-/	ca-	2an\	ca-
4B- 4G\	4b- 4d/	4rAyy	(4G\	-ło-	2B-\	-ło-	(4d/	-ło-	(4b-\	-ło-
4En\	4cc/	4b- 4g\	4F\)	.	.	.	4g/)	.	4cc\)	.
!	!	!	!	!	!	!	!	!	!LO:LB:g=original	!
=27	=27	=27	=27	=27	=27	=27	=27	=27	=27	=27
*	*	*^	*	*	*	*	*	*	*	*
2F\	2.cc/	2b-\	2.f\	2.F\	-pa-	2B-\	-pa-	2.f/	-Pa-	2.cc\	-Pa-
2FF/	.	2an\	.	.	.	2An\	-le-	.	.	.	.
.	4cc/	.	4e-\	4F\	-le-	.	.	4e-/	-le-	4cc\	-le-
*	*v	*v	*v	*	*	*	*	*	*	*	*
!	!	!LO:LB:g=original	!	!	!	!	!	!	!
=28	=28	=28	=28	=28	=28	=28	=28	=28	=28
2BB-/	2b- 2d/	2BB-/	-nia	2B-\	-nia	2d/	-nia	2b-\	-nia
2r	4r	4r	.	4r	.	4r	.	4r	.
.	4b- 4g/	4E-\	Po-	4B-\	Po-	4g/	Po-	4b-\	Po-
!	!	!	!	!	!	!LO:LB:g=original	!	!	!
=29	=29	=29	=29	=29	=29	=29	=29	=29	=29
*^	*	*	*	*	*	*	*	*	*
1B-	2E-\	2b- 2g/	2E-\	-kor-	2B-\	-kor-	2g\	-kor-	2b-\	-kor-
.	4F\	4a- 4f/	(4F\	-ne	2B-\	-ne	(4f\	-ne	(4a-\	-ne
.	4G\	4g 4e-/	4G\)	.	.	.	4e-\)	.	4g\)	.
!	!	!	!	!	!LO:LB:g=original	!	!	!	!	!
=30	=30	=30	=30	=30	=30	=30	=30	=30	=30	=30
[2B-/	2A-\	2f 2d/	2A-\	mo-	2B-\	mo-	2d/	mo-	2f/	mo-
4B-/]	4G\	4g 4e-/	4G\	-ie	4B-\	-ie	4e-/	-ie	4g/	-ie
4r	4E-\	4g 4e-/	4E-\	wẏ-	4B-\	wẏ-	4e-/	wẏ-	4g/	wẏ-
*v	*v	*	*	*	*	*	*	*	*	*
!	!	!LO:LB:g=original	!	!	!	!	!	!LO:LB:g=original	!
=31	=31	=31	=31	=31	=31	=31	=31	=31	=31
1BB-	4a- 4f/	2BB-/	-słu-	2B-\	-słu-	(>4f/	-słu-	(4a-\	-słu-
.	4cc 4a-/	.	.	.	.	4a-/)	.	4cc\)	.
.	4b- 4g/	4BB-/	-chaẏ	4B-\	-chaẏ	4g/	-chaẏ	(4b-\	-chaẏ
.	4a- 4f/	4BB-/	wo-	4d\	wo-	4f/	wo-	4a-\)	wo-
!LO:LB:g=original	!LO:LB:g=original	!LO:LB:g=original	!	!	!	!	!	!	!
=32	=32	=32	=32	=32	=32	=32	=32	=32	=32
*	*^	*	*	*	*	*	*	*	*
2E-\	2a- 2f/	2d\	2E-\	-ła-	2d\	-ła-	2f/	-ła-	2a-\	-ła-
2E-\	2g/	2e-\	2E-\	-nie	2e-\	-nia	2e-/	-nia	2g\	-nie
*	*v	*v	*	*	*	*	*	*	*	*
!	!	!	!	!	!	!LO:LB:g=original	!	!	!
=33	=33	=33	=33	=33	=33	=33	=33	=33	=33
*^	*	*	*	*	*	*	*	*	*
2BBn/	2rGGyy	2g 2d/	2BBn/	do	2G/	Do	2d/	Do	2g\	Do
2BB/	2GG\	4g 4d/	4BB/	ćie-	4G/	cie-	4d/	ćie-	4g\	ćie-
.	.	4g 4d/	4BB/	-bie	4G/	-bie	4d/	-bie	4g\	-bie
*v	*v	*	*	*	*	*	*	*	*	*
!	!	!	!	!LO:LB:g=original	!	!	!	!	!
=34	=34	=34	=34	=34	=34	=34	=34	=34	=34
2C/	2g 2e-/	2C/	wszel-	2G/	wszel-	2e-/	wszel-	2g\	wszel-
2BB-X/	2g 2d/	2BB-X/	-kie	2G/	-kie	2d/	-kie	2g\	-kie
!	!	!LO:LB:g=original	!	!	!	!	!	!LO:LB:g=original	!
=35	=35	=35	=35	=35	=35	=35	=35	=35	=35
*	*^	*	*	*	*	*	*	*	*
!	!	!LO:N:xstem	!	!	!	!	!	!	!	!
1AA-	4cc/	4e-\	4AA-X/	przẏi-	4c\	przyi-	4e-/	przẏi-	4cc\	przẏi-
.	4ee-/	2f#X\	4AA-/	-dzie	4c\	-dzie	4fn/	-dzie	4ee-\	-dzie
.	4dd/	.	4AA-/	cia-	4c\	cia-	4f/	cia-	4dd\	ćia-
.	4cc/	4f#\	4AA-/	-ło	4c\	-ło	4f/	-ło	4cc\	-ło
!	!	!	!	!	!	!	!LO:LB:g=original	!	!	!
=36	=36	=36	=36	=36	=36	=36	=36	=36	=36	=36
2GG/	2bn 2g/	2d\	1GG	Pa-	(2d\	Pa-	(>2g/	Pa-	(2bn\	Pa-
2GG/	2cc 2f#X/	2e-\	.	.	2e-\)	.	2fn/)	.	2cc\)	.
*	*v	*v	*	*	*	*	*	*	*	*
=37	=37	=37	=37	=37	=37	=37	=37	=37	=37
2GG/	2bn 2g 2d/	2GG/	-nie	2d\	-nie	2g;/	-nie	2b-\	-nie
!	!LO:TX:b:t=Da Capo.\nad Finem	!LO:TX:a:t=Da Capo \nAd Fine	!	!LO:TX:b:t=Da Capo ad Fine	!	!LO:TX:a:t=Da Capo ad Fine	!	!LO:TX:a:t=Da Capo\nAd Fine	!
2r	2r	2r	.	2r;	.	2r	.	2r;	.
==	==	==	==	==	==	==	==	==	==
*-	*-	*-	*-	*-	*-	*-	*-	*-	*-
!!!system-decoration: [(g1)]{s5,s6}
!!!RDF**kern: > = above
!!!RDF**kern: < = below
!!!ENC: Marcin Jachim
!!!END: 2020-10-03
!!!ENC: Marcin Jachim
!!!END: 2021-11-07
